symbols/web/local_activity/materialsymbolsrounded/local_activity_wght700grad200_24px.svg

<svg xmlns="http://www.w3.org/2000/svg" height="24" width="24"><path d="M3.95 21.15q-1.275 0-2.187-.925Q.85 19.3.85 18.05v-4.7q.775 0 1.387-.338.613-.337.613-1.012 0-.7-.613-1.038-.612-.337-1.387-.337V5.95q0-1.325.913-2.213.912-.887 2.187-.887h16.125q1.3 0 2.2.887.9.888.9 2.213v4.675q-.75 0-1.387.337-.638.338-.638 1.038 0 .675.638 1.012.637.338 1.387.338v4.7q0 1.25-.9 2.175-.9.925-2.2.925Zm.3-3.4h15.525V15.6q-.9-.6-1.463-1.55-.562-.95-.562-2.05 0-1.125.562-2.088.563-.962 1.463-1.537V6.25H4.25v2.125q.95.575 1.475 1.537.525.963.525 2.088 0 1.1-.537 2.05-.538.95-1.463 1.55ZM12 14.725l1.1.85q.5.375 1.025 0 .525-.375.325-.975l-.425-1.4 1.225-1q.475-.375.275-.95-.2-.575-.8-.575H13.3l-.475-1.45q-.2-.6-.813-.6-.612 0-.812.6l-.5 1.45H9.25q-.6 0-.8.562-.2.563.25.963l1.225 1-.425 1.45q-.175.575.325.937.5.363 1 .013ZM12 12Z"/></svg>

<svg xmlns="http://www.w3.org/2000/svg" height="24" width="24"><path d="M3.95 21.15Q2.675 21.15 1.763 20.225Q0.85 19.3 0.85 18.05V13.35Q1.625 13.35 2.237 13.012Q2.85 12.675 2.85 12Q2.85 11.3 2.237 10.962Q1.625 10.625 0.85 10.625V5.95Q0.85 4.625 1.763 3.737Q2.675 2.85 3.95 2.85H20.075Q21.375 2.85 22.275 3.737Q23.175 4.625 23.175 5.95V10.625Q22.425 10.625 21.788 10.962Q21.15 11.3 21.15 12Q21.15 12.675 21.788 13.012Q22.425 13.35 23.175 13.35V18.05Q23.175 19.3 22.275 20.225Q21.375 21.15 20.075 21.15ZM4.25 17.75H19.775V15.6Q18.875 15 18.312 14.05Q17.75 13.1 17.75 12Q17.75 10.875 18.312 9.912Q18.875 8.95 19.775 8.375V6.25H4.25V8.375Q5.2 8.95 5.725 9.912Q6.25 10.875 6.25 12Q6.25 13.1 5.713 14.05Q5.175 15 4.25 15.6ZM12 14.725 13.1 15.575Q13.6 15.95 14.125 15.575Q14.65 15.2 14.45 14.6L14.025 13.2L15.25 12.2Q15.725 11.825 15.525 11.25Q15.325 10.675 14.725 10.675H13.3L12.825 9.225Q12.625 8.625 12.012 8.625Q11.4 8.625 11.2 9.225L10.7 10.675H9.25Q8.65 10.675 8.45 11.237Q8.25 11.8 8.7 12.2L9.925 13.2L9.5 14.65Q9.325 15.225 9.825 15.587Q10.325 15.95 10.825 15.6ZM12 12Q12 12 12 12Q12 12 12 12Q12 12 12 12Q12 12 12 12Q12 12 12 12Q12 12 12 12Q12 12 12 12Q12 12 12 12Z"/></svg>
